X:320
T:Valle e Pogradecit
M:4/4
N:in mail from Ewout Lam\'e :- "Pogradec is an Albanian city on the shores
N:of the Lake of Ohrid and I think a Vall is a type of dance".
N:Thanks for that.
O:Albania
Z:Richard Robinson 
%%TUNEURL: http://www.leeds.ac.uk/music/Info/RRTuneBk/gettune/00000684.html
%%ID:00000684
K:A dorian
e4 d4|c2Bc d2d2|z2DE FGAB|cBce d^cd2|\
e4 d4|c2Bc d2B2|
cBA2 BAG2|A8::\
z2DE FGAB|cBce d2B2|cBce d2B2|cBce d^cd2|
z2DE FGAB|cBce d2B2|cBA2 BAG2|A8:: \
e2=f2 e2d2|d2cB c2d2|
e2=f2 e2d2|d2cBc2B2|\
e2=f2 e2d2|d2cB c2B2|cBAc BAG2|A8::
z2BB d2B2|d2cd c2B2|z2BB d2B2|d2cd c2B2|\
z2BB d2B2|d2cd c2B2|cBAc BAG2|A8:|
